gtk/icons/gesture-swipe-left-symbolic.svg

<svg xmlns="http://www.w3.org/2000/svg" width="64" height="64">
  <path d="m13 10.148-10 9.5 10 9.5v-7h8.309A9.047 9.047 0 0 0 26 28.03V47h-1v-7.814C25 36.866 23.216 35 21 35s-4 1.867-4 4.186V60h40c2.216 0 4-1.867 4-4.186V34.186C61 31.866 59.216 30 57 30s-4 1.867-4 4.186V39h-1v-7.814C52 28.866 50.325 27 48.246 27h-.492C45.674 27 44 28.867 44 31.186V39h-1v-7.814C43 28.866 41.216 27 39 27s-4 1.867-4 4.186V39h-1V28.064c2.975-1.472 5.037-4.533 5.037-8.064 0-4.953-4.047-9-9-9-3.956 0-7.328 2.585-8.527 6.148H13ZM30.037 14c3.332 0 6 2.669 6 6A5.976 5.976 0 0 1 34 24.512v-4.326C34 17.866 32.216 16 30 16s-4 1.867-4 4.186v4.257A5.974 5.974 0 0 1 24.037 20c0-3.331 2.669-6 6-6z"/>
</svg>

<svg
        xmlns='http://www.w3.org/2000/svg'
        xmlns:svg='http://www.w3.org/2000/svg'
        width='64'
        height='64'>
  <path
          clip-path='none'
          fill='url(#gpa:foreground) rgb(0,0,0)'
          fill-opacity='1'
          fill-rule='nonzero'
          d='M 13 10.148 L 3 19.648 L 13 29.148 L 13 22.148 L 21.309 22.148 C 21.9446 24.6967, 23.6566 26.8433, 26 28.03 L 26 47 L 25 47 L 25 39.186 C 25 36.866, 23.216 35, 21 35 C 18.784 35, 17 36.867, 17 39.186 L 17 60 L 57 60 C 59.216 60, 61 58.133, 61 55.814 L 61 34.186 C 61 31.866, 59.216 30, 57 30 C 54.784 30, 53 31.867, 53 34.186 L 53 39 L 52 39 L 52 31.186 C 52 28.866, 50.325 27, 48.246 27 L 47.754 27 C 45.674 27, 44 28.867, 44 31.186 L 44 39 L 43 39 L 43 31.186 C 43 28.866, 41.216 27, 39 27 C 36.784 27, 35 28.867, 35 31.186 L 35 39 L 34 39 L 34 28.064 C 36.975 26.592, 39.037 23.531, 39.037 20 C 39.037 15.047, 34.99 11, 30.037 11 C 26.081 11, 22.709 13.585, 21.51 17.148 L 13 17.148 Z M 30.037 14 C 33.369 14, 36.037 16.669, 36.037 20 C 36.0422 21.7277, 35.2993 23.3732, 34 24.512 L 34 20.186 C 34 17.866, 32.216 16, 30 16 C 27.784 16, 26 17.867, 26 20.186 L 26 24.443 C 24.7459 23.3069, 24.0325 21.6922, 24.037 20 C 24.037 16.669, 26.706 14, 30.037 14 Z'
          class='foreground foreground-fill'>
  </path>
</svg>
